X: 4071
M: C|
L: 1/8
K: D
d2fd g2fe | d2fd e2cA |\
d2fd (ge)fd | egfa e2(cA) ::\
g2(dB) BgdB | g2dB e2cA |\
g2(dB) BgdB | A/A/A (af) e2(cA) :|


